X: 18
T: THE HEREFORDSHIRE LASSES
B: "Old English Country Dances", Frank Kidson ed., William Reeves pub., London 1890
Z: 2010-9-26 John Chambers <jc:trillian.mit.edu>
M: 2/4
L: 1/16
K: G
|: G2Bd cAFD | GBdg d2cB | ceAc BdGB | AcFA  G2G,2 :|
|: d2Bc d2Bc | dgfe e2d2 | g2ge f2fd | ege^c d2D2 |
   G2Bd cAFD | GBdg d2cB | ceAc BcGB | AcAF  G4 :|


%%sep 1 1 500

%%sep 1 1 500

